packages/core/src/svgs/tokens/branded/RSC.svg

<svg width="24" height="24" viewBox="0 0 24 24" fill="none" xmlns="http://www.w3.org/2000/svg">
<path fill-rule="evenodd" clip-rule="evenodd" d="M12.8547 2.83334C12.8547 3.29444 12.4658 3.66667 11.9992 3.66667C11.5269 3.66667 11.1436 3.29444 11.1436 2.83334C11.1436 2.37222 11.5325 2 11.9992 2C12.4714 2 12.8547 2.37222 12.8547 2.83334ZM10.3325 5.88888C10.3325 6.18357 10.2153 6.46619 10.007 6.67456C9.7987 6.88294 9.51598 6.99999 9.22135 6.99999C8.92666 6.99999 8.64404 6.88294 8.43567 6.67456C8.22729 6.46619 8.11024 6.18357 8.11024 5.88888C8.11024 5.5942 8.22729 5.31159 8.43567 5.10321C8.64404 4.89483 8.92666 4.77778 9.22135 4.77778C9.51598 4.77778 9.7987 4.89483 10.007 5.10321C10.2153 5.31159 10.3325 5.5942 10.3325 5.88888ZM14.7769 6.99999C15.0716 6.99999 15.3542 6.88294 15.5625 6.67456C15.771 6.46619 15.888 6.18357 15.888 5.88888C15.888 5.5942 15.771 5.31159 15.5625 5.10321C15.3542 4.89483 15.0716 4.77778 14.7769 4.77778C14.4822 4.77778 14.1996 4.89483 13.9912 5.10321C13.7829 5.31159 13.6658 5.5942 13.6658 5.88888C13.6658 6.18357 13.7829 6.46619 13.9912 6.67456C14.1996 6.88294 14.4822 6.99999 14.7769 6.99999ZM10.0436 9.22222C9.87687 9.23333 9.71029 9.23889 9.57691 9.20555C9.24356 9.12222 9.0769 9.03888 9.0769 8.62777C9.0769 8.28332 9.48798 8.10555 9.8547 8.11111H14.1158C14.4436 8.11111 14.9436 8.28888 14.9268 8.68888C14.9103 9.2611 14.1269 9.24443 13.738 9.21665C13.7289 9.21589 13.7199 9.21698 13.7113 9.21984C13.7028 9.22271 13.6947 9.2273 13.688 9.23332C13.6814 9.23877 13.6761 9.24554 13.6722 9.25318C13.6684 9.26085 13.6662 9.26922 13.6658 9.27778V12.9C13.6658 12.9778 13.688 13.05 13.7324 13.1222C15.3103 15.4389 16.8435 17.7889 18.3714 20.1389C18.5325 20.3778 18.6769 20.6611 18.6657 20.95C18.638 21.7888 17.9047 22 17.177 22H6.81024C6.34913 22 5.8658 21.9334 5.5769 21.5944C5.36579 21.3555 5.29357 21.0888 5.35468 20.8C5.40468 20.5444 5.48802 20.3222 5.61024 20.1333L7.36023 17.5C8.33801 16.0333 9.30467 14.5722 10.2713 13.1C10.3102 13.0388 10.3269 12.9722 10.3269 12.9V9.27778C10.3284 9.27 10.3281 9.26201 10.3262 9.25435C10.3242 9.24669 10.3207 9.23952 10.3158 9.23332C10.3098 9.22772 10.3028 9.22337 10.2953 9.22051C10.2877 9.21764 10.2795 9.21633 10.2713 9.21665H10.0436V9.22222ZM9.06579 16.9999L9.04912 16.9945L9.03245 16.9778C9.02953 16.9727 9.02799 16.967 9.02799 16.961C9.02799 16.9552 9.02953 16.9495 9.03245 16.9445L11.4436 13.3334V9.22222H12.5546L12.5602 13.3334L14.9603 16.9445C14.9643 16.9483 14.9674 16.9531 14.9692 16.9586C14.9709 16.964 14.9713 16.9697 14.9701 16.9753C14.969 16.9809 14.9665 16.9861 14.9629 16.9903C14.9591 16.9947 14.9545 16.998 14.9491 16.9999H9.06579Z" fill="#4F53F6"/>
</svg>

<svg xmlns="http://www.w3.org/2000/svg" width="24" height="24" fill="none" viewBox="0 0 24 24">
    <path fill="#4F53F6" fill-rule="evenodd" d="M12.855 2.833a.85.85 0 0 1-.856.834.844.844 0 0 1-.855-.834c0-.46.389-.833.855-.833.472 0 .856.372.856.833M10.332 5.89a1.111 1.111 0 1 1-2.222 0 1.111 1.111 0 0 1 2.223 0M14.778 7a1.11 1.11 0 1 0 0-2.222 1.11 1.11 0 0 0 0 2.222m-4.733 2.222a1.6 1.6 0 0 1-.467-.016c-.333-.084-.5-.167-.5-.578 0-.345.411-.522.778-.517h4.26c.329 0 .829.178.812.578-.017.572-.8.555-1.189.528a.07.07 0 0 0-.05.016.06.06 0 0 0-.022.045V12.9q0 .116.066.222a393 393 0 0 1 4.64 7.017c.16.239.305.522.294.811-.028.839-.761 1.05-1.489 1.05H6.81c-.46 0-.944-.067-1.233-.406a.87.87 0 0 1-.222-.794q.073-.384.255-.667L7.36 17.5a752 752 0 0 0 2.911-4.4.36.36 0 0 0 .056-.2V9.278a.05.05 0 0 0-.011-.045.06.06 0 0 0-.045-.016h-.227zM9.066 17l-.017-.006-.017-.016a.03.03 0 0 1 0-.034l2.412-3.61V9.221h1.11l.006 4.111 2.4 3.612a.03.03 0 0 1 .01.03.03.03 0 0 1-.02.025z" clip-rule="evenodd"/>
</svg>
